src/assets/icons/media-reading-writing,simple,note-filled.svg

<svg width="48" height="48" viewBox="0 0 48 48" fill="none" xmlns="http://www.w3.org/2000/svg">
<rect opacity="0.2" x="5" y="5" width="38" height="38" rx="4" fill="black"/>
<path fill-rule="evenodd" clip-rule="evenodd" d="M11.1716 11.1716C10 12.3431 10 14.2288 10 18V30C10 33.7712 10 35.6569 11.1716 36.8284C12.3431 38 14.2288 38 18 38H28V32C28 29.7909 29.7909 28 32 28H38V18C38 14.2288 38 12.3431 36.8284 11.1716C35.6569 10 33.7712 10 30 10H18C14.2288 10 12.3431 10 11.1716 11.1716ZM15.5 14C14.6716 14 14 14.6716 14 15.5C14 16.3284 14.6716 17 15.5 17H28.5C29.3284 17 30 16.3284 30 15.5C30 14.6716 29.3284 14 28.5 14H15.5ZM15.5 20C14.6716 20 14 20.6716 14 21.5C14 22.3284 14.6716 23 15.5 23H21.5C22.3284 23 23 22.3284 23 21.5C23 20.6716 22.3284 20 21.5 20H15.5Z" fill="black"/>
<path opacity="0.6" d="M38 28H32C29.7909 28 28 29.7909 28 32V38L38 28Z" fill="black"/>
</svg>

<svg xmlns="http://www.w3.org/2000/svg" width="48" height="48" fill="none" viewBox="0 0 48 48">
  <rect width="38" height="38" x="5" y="5" fill="#000" opacity=".2" rx="4"/>
  <path fill="#000" fill-rule="evenodd" d="M11.172 11.172C10 12.343 10 14.229 10 18v12c0 3.771 0 5.657 1.172 6.828C12.343 38 14.229 38 18 38h10v-6a4 4 0 014-4h6V18c0-3.771 0-5.657-1.172-6.828C35.657 10 33.771 10 30 10H18c-3.771 0-5.657 0-6.828 1.172zM15.5 14a1.5 1.5 0 000 3h13a1.5 1.5 0 000-3h-13zm0 6a1.5 1.5 0 000 3h6a1.5 1.5 0 000-3h-6z" clip-rule="evenodd"/>
  <path fill="#000" d="M38 28h-6a4 4 0 00-4 4v6l10-10z" opacity=".6"/>
</svg>
